X: 10800
T: Dragon Lady
R: jig
M: 6/8
K: Adorian
|:~E3 A2G|EFG E2D|~E3 A2G|ABc dBG|
~E3 A2G|EFG E2d|cde def|1 ged BAG:|2 ged BAg||
|:a2a AaA|gAf edB|A2A aAa|gef ~g3|
a2a AaA|gAf edB|ABc Bcd|1 efg age:|2 efg edB||

